favicon.svg

<svg fill="none" height="285" viewBox="0 0 285 285" width="285" xmlns="http://www.w3.org/2000/svg"><rect fill="#fff" height="285" rx="50" width="285"/><g fill="#060001"><path d="m183.405 64h-10.8c-.332 0-.6.2679-.6.5999v5.4001 12 12 12 9c0 1.657-1.344 3-3 3h-8.999-9.699-2.3-11.413c-.331 0-.6.268-.6.6v10.8c0 .332.269.6.6.6h11.413 2.3 9.699 11.999 6c3.313 0 6-2.687 6-6v-6-12-12-12-12-5.4001c0-.332-.268-.5999-.6-.5999z"/><path d="m261.4 118h-5.4-11.999-11.999-12-8.999c-1.657 0-3-1.343-3-3v-9-12-6-5.4001c0-.332-.268-.5999-.6-.5999h-10.799c-.332 0-.6.2679-.6.5999v5.4001 6 12 12 6c0 3.313 2.686 6 5.999 6h6 11.999 12 11.999 11.999 5.4c.332 0 .6-.268.6-.6v-10.8c0-.332-.268-.6-.6-.6z"/><path d="m69.9945 118h1.4533 10.562 11.9993 11.9989 12 5.401c.33 0 .598.268.598.6v10.8c0 .331-.268.6-.598.6h-5.401-12-11.9989-11.9993-10.562-1.4373-.0133c-19.7042 0-35.7006 15.835-35.9846 35.472v.528h-.0133v12h.0133v12 12 5.4c0 .331-.2679.6-.5986.6h-10.8007c-.3306 0-.6-.269-.6-.6v-5.4-12-12h-.0133v-12h.0133v-.521c.0427-3.959.5547-7.805 1.5-11.479 1.0959-4.26 2.7745-8.284 4.925-12 1.6026-2.769 3.4705-5.364 5.5743-7.748 1.3293-1.504 2.7492-2.924 4.2544-4.252 2.3839-2.102 4.9771-3.969 7.7449-5.57 3.7158-2.15 7.7396-3.826 11.9993-4.92 3.8305-.986 7.8449-1.51 11.9833-1.51h.016z"/><path d="m243.401 142h-5.386-.014-5.986-11.999-12-5.999c-3.313 0-6 2.687-6 6v6 12 12 12 12 5.4c0 .332.268.6.6.6h10.799c.331 0 .6-.268.6-.6v-5.4-12-12-12-9.132c.071-1.595 1.375-2.868 2.987-2.868h9.013 11.999 5.986.014 5.386c.332 0 .6-.268.6-.6v-10.8c0-.332-.268-.6-.6-.6z"/><path d="m177.992 142h-6-11.999-12-11.999-11.999-5.4c-.331 0-.6.268-.6.6v10.8c0 .332.269.6.6.6h5.4 11.999 11.999 12 9.012c1.611 0 2.916 1.273 2.987 2.867v9.133 12 6 5.4c0 .332.269.6.6.6h10.799c.331 0 .6-.268.6-.6v-5.4-6-12-12-6c0-3.313-2.686-6-5.999-6z"/><path d="m57.9986 187.814v-9.815-12c0-6.625 5.369-11.996 11.9953-11.998h.004l11.9993-.002h11.9993 11.3995c.332 0 .6-.268.6-.598v-10.802c0-.33-.268-.6-.6-.6h-11.3995-11.9993-11.9993c-4.3731 0-8.4689 1.176-11.9993 3.22-3.6398 2.107-6.6743 5.14-8.7809 8.782-2.0438 3.53-3.2184 7.626-3.2184 12v11.998 9.815l.0133 2.187c0 4.372 1.1759 8.468 3.2185 12 2.1039 3.636 5.133 6.666 8.7675 8.773.004.003.0093.005.0133.008 3.5265 2.04 7.6182 3.215 11.986 3.217v.002h.0133c-.0013 0-.0026 0-.004-.002h11.99 11.9993 11.3995c.332 0 .6-.268.6-.598v-10.802c0-.33-.268-.6-.6-.6h-11.3995-11.9993-11.9993c-6.6263 0-11.9993-5.372-11.9993-12v.002z"/></g></svg>

<svg width="285" height="285" viewBox="0 0 285 285" fill="none" xmlns="http://www.w3.org/2000/svg">
<rect width="285" height="285" rx="50" fill="white"/>
<path d="M183.405 64H172.605C172.273 64 172.005 64.2679 172.005 64.5999V70V82V94V106V115C172.005 116.657 170.661 118 169.005 118H160.006H150.307H148.007H136.594C136.263 118 135.994 118.268 135.994 118.6V129.4C135.994 129.732 136.263 130 136.594 130H148.007H150.307H160.006H172.005H178.005C181.318 130 184.005 127.313 184.005 124V118V106V94V82V70V64.5999C184.005 64.2679 183.737 64 183.405 64Z" fill="#060001"/>
<path d="M261.4 118H256H244.001H232.002H220.002H211.003C209.346 118 208.003 116.657 208.003 115V106V94V88V82.5999C208.003 82.2679 207.735 82 207.403 82H196.604C196.272 82 196.004 82.2679 196.004 82.5999V88V94V106V118V124C196.004 127.313 198.69 130 202.003 130H208.003H220.002H232.002H244.001H256H261.4C261.732 130 262 129.732 262 129.4V118.6C262 118.268 261.732 118 261.4 118Z" fill="#060001"/>
<path d="M69.9945 118H71.4478H82.0098H94.0091H106.008H118.008H123.409C123.739 118 124.007 118.268 124.007 118.6V129.4C124.007 129.731 123.739 130 123.409 130H118.008H106.008H94.0091H82.0098H71.4478H70.0105H69.9972C50.293 130 34.2966 145.835 34.0126 165.472V166H33.9993V178H34.0126V190V202V207.4C34.0126 207.731 33.7447 208 33.414 208H22.6133C22.2827 208 22.0133 207.731 22.0133 207.4V202V190V178H22V166H22.0133V165.479C22.056 161.52 22.568 157.674 23.5133 154C24.6092 149.74 26.2878 145.716 28.4383 142C30.0409 139.231 31.9088 136.636 34.0126 134.252C35.3419 132.748 36.7618 131.328 38.267 130C40.6509 127.898 43.2441 126.031 46.0119 124.43C49.7277 122.28 53.7515 120.604 58.0112 119.51C61.8417 118.524 65.8561 118 69.9945 118H70.0105Z" fill="#060001"/>
<path d="M243.401 142H238.015H238.001H232.015H220.016H208.016H202.017C198.704 142 196.017 144.687 196.017 148V154V166V178V190V202V207.4C196.017 207.732 196.285 208 196.617 208H207.416C207.747 208 208.016 207.732 208.016 207.4V202V190V178V166V156.868C208.087 155.273 209.391 154 211.003 154H220.016H232.015H238.001H238.015H243.401C243.733 154 244.001 153.732 244.001 153.4V142.6C244.001 142.268 243.733 142 243.401 142Z" fill="#060001"/>
<path d="M177.992 142H171.992H159.993H147.993H135.994H123.995H118.595C118.264 142 117.995 142.268 117.995 142.6V153.4C117.995 153.732 118.264 154 118.595 154H123.995H135.994H147.993H159.993H169.005C170.616 154 171.921 155.273 171.992 156.867V166V178V184V189.4C171.992 189.732 172.261 190 172.592 190H183.391C183.722 190 183.991 189.732 183.991 189.4V184V178V166V154V148C183.991 144.687 181.305 142 177.992 142Z" fill="#060001"/>
<path d="M57.9986 187.814V177.999V165.999C57.9986 159.374 63.3676 154.003 69.9939 154.001H69.9979L81.9972 153.999H93.9965H105.396C105.728 153.999 105.996 153.731 105.996 153.401V142.599C105.996 142.269 105.728 141.999 105.396 141.999H93.9965H81.9972H69.9979C65.6248 141.999 61.529 143.175 57.9986 145.219C54.3588 147.326 51.3243 150.359 49.2177 154.001C47.1739 157.531 45.9993 161.627 45.9993 166.001V177.999V187.814L46.0126 190.001C46.0126 194.373 47.1885 198.469 49.2311 202.001C51.335 205.637 54.3641 208.667 57.9986 210.774C58.0026 210.777 58.0079 210.779 58.0119 210.782C61.5384 212.822 65.6301 213.997 69.9979 213.999V214.001H70.0112C70.0099 214.001 70.0086 214.001 70.0072 213.999H81.9972H93.9965H105.396C105.728 213.999 105.996 213.731 105.996 213.401V202.599C105.996 202.269 105.728 201.999 105.396 201.999H93.9965H81.9972H69.9979C63.3716 201.999 57.9986 196.627 57.9986 189.999V190.001V187.814Z" fill="#060001"/>
</svg>
